!!!!SEGMENT: pl-gd--ee-1638--002-013_marenzio-luca--motettorum-pro-festis-totius-anni-in-festo-corporis-christi-o-sacrum-convivium.krn
!!!cenid: 15xx:1016
!!!COM: Marenzio, Luca
!!!COM-rismID:
!!!CDT: ~1553-1599/08/22
!!!CNT: Italian
!!!GTL: Motettorum pro festis totius anni
!!!OTL: In festo Corporis Christi/O sacrum convivium
!!!OMV: 013
!!!PDT: 1588
!!!AGN:
!!!SMS-siglum: PL-GD
!!!SMS-shelfmark: Ee 1638
!!!SMS-shelfwork: 002-013 G
!!!SMS-variant:
!!!SMS-altvar:
!!!NIFC-rismSourceID: 990039238
!!!NIFC-islandoraID: pl-gd:57883
!!!URL-pdf-islandora: https://repozytorium.nifc.pl/islandora/object/pl-gd%3A57883/datastream/PDF/view
!!!URL-scan: https://polish.musicsources.pl/pl/lokalizacje/galeria/klocki-introligatorskie/655 @EN{Scan on Polish Music Herritage in Open Access Website} @PL{Skany w portalu Dziedzictwo Muzyki Polskiej w otwartym dostępie}
!!!ONB-nifc: UWAGA: Cantus: s. 622 (prawa), Altus: s. 470 (prawa), Tenor: s. 318 (prawo), Bassus: s. 166 (prawa)
!!!AIN: 1 alto 1 bass 1 soprn 1 tenor
!!!key:
**kern	**text	**kern	**text	**kern	**text	**kern	**text
*part4	*part4	*part3	*part3	*part2	*part2	*part1	*part1
*staff4	*staff4	*staff3	*staff3	*staff2	*staff2	*staff1	*staff1
*I"BASSO	*	*I"TENORE	*	*I"ALTO	*	*I"CANTO	*
*I'B.	*	*I'T.	*	*I'A.	*	*I'C.	*
*Ibass	*	*Itenor	*	*Ialto	*	*Isoprn	*
*ICvox	*	*ICvox	*	*ICvox	*	*ICvox	*
*IG	*	*	*	*	*	*	*
*clefF4	*	*clefC4	*	*clefC3	*	*clefC1	*
*k[]	*	*k[]	*	*k[]	*	*k[]	*
*C:	*	*C:	*	*C:	*	*C:	*
*M2/1	*	*M2/1	*	*M2/1	*	*M2/1	*
*met(C|)	*	*met(C|)	*	*met(C|)	*	*met(C|)	*
=1-	=1-	=1-	=1-	=1-	=1-	=1-	=1-
!LO:TX:a:i:t=In feſto Corporis Christi	!	!LO:TX:a:i:t=In feſto Corporis Christi.	!	!LO:TX:a:i:t=In feſto Corporis Christi	!	!LO:TX:a:i:t=In feſto Corporis Christi.	!
0C	O	1r	.	0e	O	00g	O
.	.	1.c	O	.	.	.	.
=2-	=2-	=2-	=2-	=2-	=2-	=2-	=2-
0G	.	.	.	0d	.	.	.
.	.	4B\	.	.	.	.	.
.	.	4A\	.	.	.	.	.
.	.	1B	.	.	.	.	.
=3-	=3-	=3-	=3-	=3-	=3-	=3-	=3-
1F	Sa-	1c	Sa-	1f	Sa-	1a	Sa-
1F	-crum	1c	-crum	1f	-crum	1.a	-crum
=4-	=4-	=4-	=4-	=4-	=4-	=4-	=4-
1D	con-	1d	con-	1f	con-	.	.
.	.	.	.	.	.	2b\	con-
1.C	-ui-	1.e	-ui-	1.g	-ui-	1.cc	-ui-
=5-	=5-	=5-	=5-	=5-	=5-	=5-	=5-
.	.	.	.	.	.	.	.
2C/	-ui-	2e\	-ui-	2g\	-ui-	2cc\	-ui-
0GG	-um	0d	-um	1g	-um	0.b	-um
=6-	=6-	=6-	=6-	=6-	=6-	=6-	=6-
.	.	.	.	2r	.	.	.
.	.	.	.	1d	in	.	.
1r	.	1G	in	.	.	.	.
.	.	.	.	2e\	quo	.	.
=7-	=7-	=7-	=7-	=7-	=7-	=7-	=7-
0r	.	1A	quo	2f\	Chri-	1r	.
.	.	.	.	1e	-ſtus	.	.
.	.	2c\	Chri-	.	.	1g	in
!	!	!LO:SIC:v:t=custos A	!	!	!	!	!
.	.	2B\	-ſtus	2.g\	ſu-	.	.
!	!	!LO:LB:g=original	!	!	!	!	!
=8-	=8-	=8-	=8-	=8-	=8-	=8-	=8-
1r	.	2.A/	ſu-	.	.	2a\	quo
.	.	.	.	4f\	.	.	.
.	.	.	.	4f\	.	1cc	Chri-
.	.	4A/	-mi-	8e\	.	.	.
!	!	!	!	!LO:SIC:v:t=custos e	!	!	!
.	.	.	.	8d\	.	.	.
!	!	!	!	!LO:LB:g=original	!	!	!
2r	.	1G	-tur	2e\	.	.	.
2G\	in	.	.	2d\	-mi-	2b\	-ſtus
=9-	=9-	=9-	=9-	=9-	=9-	=9-	=9-
2A\	quo	1r	.	1c	-tur	2.a\	ſu-
1F	Chri-	.	.	.	.	.	.
.	.	.	.	.	.	4a\	-mi-
!	!	!	!	!	!	!LO:SIC:v:t=custos b	!
.	.	2r	.	1c	in	1g	-tur
!LO:SIC:v:t=custos D	!	!	!	!	!LO:LB:g=original	!	!
2E\	-ſtus	2G/	in	.	.	.	.
!LO:LB:g=original	!	!	!	!	!	!	!
=10-	=10-	=10-	=10-	=10-	=10-	=10-	=10-
2.D/	ſu-	1A	quo	2d\	quo	0r	.
.	.	.	.	1f	Chri-	.	.
4D/	-mi-	.	.	.	.	.	.
1C	-tur	1.c	Chri-	.	.	.	.
.	.	.	.	2e\	-ſtus	.	.
=11-	=11-	=11-	=11-	=11-	=11-	=11-	=11-
1G	in	.	.	2.d\	ſu-	2r	.
*	*	*	*	*	*	*	*ij
.	.	2B\	-ſtus	.	.	2b\	in
.	.	.	.	4d\	-mi-	.	.
2A\	quo	2.A/	ſu-	1c	-tur	2cc\	quo
1c\	Chri-	.	.	.	.	1ee\	Chri-
.	.	4A/	-mi-	.	.	.	.
=12-	=12-	=12-	=12-	=12-	=12-	=12-	=12-
.	.	1G	-tur	2r	.	.	.
2B\	-ſtus	.	.	2d\	re-	2dd\	-ſtus
2.A\	ſu-	1r	.	2e\	-co-	2.cc\	ſu-
.	.	.	.	2f\	-li-	.	.
4A\	-mi-	.	.	.	.	4cc\	-mi-
=13-	=13-	=13-	=13-	=13-	=13-	=13-	=13-
1G	-tur	2r	.	2.g\	-tur	1b	-tur
*	*	*	*	*	*	*	*Xij
.	.	2d\	re-	.	.	.	.
.	.	.	.	4f\	me-	.	.
1r	.	2c\	-co-	2e\	-mo-	1r	.
.	.	2B\	-li-	2d\	-ri-	.	.
=14-	=14-	=14-	=14-	=14-	=14-	=14-	=14-
2r	.	2.A/	-tur	1c	-a	2r	.
2F\	re-	.	.	.	.	2a\	re-
.	.	4B\	me-	.	.	.	.
2E\	-co-	2c\	-mo-	1r	.	2g/	-co-
2D/	-li-	2d\	-ri-	.	.	2f/	-li-
=15-	=15-	=15-	=15-	=15-	=15-	=15-	=15-
2.C/	-tur	1G	-a	2r	.	2.e/	-tur
*	*	*	*	*	*ij	*	*
.	.	.	.	2c/	re-	.	.
4D/	me-	.	.	.	.	4f/	me-
!	!	!	!	!LO:SIC:v:t=custos A	!	!	!
2E\	-mo-	1r	.	2B/	-co-	2g/	-mo-
!	!	!	!	!LO:LB:g=original	!	!	!
2F\	-ri-	.	.	2A/	-li-	2a\	-ri-
=16-	=16-	=16-	=16-	=16-	=16-	=16-	=16-
!	!	!LO:SIC:v:t=custos G	!	!	!	!	!
2G\	-a	1r	.	2.G/	-tur	2d/	-a
!	!	!LO:LB:g=original	!	!	!	!	!
!LO:SIC:v:t=custos E	!	!	!	!	!	!	!
1E	paſ-	.	.	.	.	1g	paſ-
!LO:LB:g=original	!	!	!	!	!	!	!
.	.	.	.	4A/	me-	.	.
.	.	2r	.	2B/	-mo-	.	.
*	*	*	*ij	*	*	*	*
2E\	-ſi-	2G/	re-	2c/	-ri-	2g/	-si-
=17-	=17-	=17-	=17-	=17-	=17-	=17-	=17-
1D	-o-	2A/	-co-	1d	-a	1f	-o-
*	*	*	*	*	*Xij	*	*
.	.	2B\	-li-	.	.	.	.
0C	-nis	2.c\	-tur	2r	.	1e	-nis
.	.	.	.	1e\	paſ-	.	.
.	.	4B\	me-	.	.	.	.
=18-	=18-	=18-	=18-	=18-	=18-	=18-	=18-
.	.	2A/	-mo-	.	.	4c/	e-
.	.	.	.	.	.	4d/	.
.	.	2G/	-ri-	2e\	-si-	4e/	.
!	!	!	!	!	!	!LO:SIC:v:t=custos g	!
.	.	.	.	.	.	4f/	.
!	!	!	!	!	!	!LO:LB:g=original	!
1BB	e-	1G	-a	1d	-o-	4g/	.
*	*	*	*Xij	*	*	*	*
.	.	.	.	.	.	8f/	.
.	.	.	.	.	.	8e/	.
.	.	.	.	.	.	4d/	.
.	.	.	.	.	.	4e/	.
=19-	=19-	=19-	=19-	=19-	=19-	=19-	=19-
1AA	-ius	2r	.	0c	-nis	2f/	-ius
.	.	1A	paſ-	.	.	4e/	.
.	.	.	.	.	.	4d/	.
2r	.	.	.	.	.	2e/	.
2AA/	re-	2A/	-si-	.	.	2c/	re-
=20-	=20-	=20-	=20-	=20-	=20-	=20-	=20-
2BB/	-co-	1G	-o-	1B	e-	2d/	-co-
2C/	-li-	.	.	.	.	2e/	-li-
1D	-tur	1F	-nis	2A/	-ius	4f/	-tur
.	.	.	.	.	.	4g/	.
.	.	.	.	2A/	re-	4a\	.
.	.	.	.	.	.	4f/	.
=21-	=21-	=21-	=21-	=21-	=21-	=21-	=21-
2r	.	1E	e-	2B/	-co-	1g	.
*	*ij	*	*	*	*	*	*
2G\	re-	.	.	2c/	-li-	.	.
2A\	-co-	1D	-ius	1d	-tur	1r	.
2B\	-li-	.	.	.	.	.	.
=22-	=22-	=22-	=22-	=22-	=22-	=22-	=22-
2.c\	-tur	0r	.	2r	.	1g	re-
*	*Xij	*	*	*	*	*	*
.	.	.	.	2e\	re-	.	.
4B\	me-	.	.	.	.	.	.
2A\	-mo-	.	.	2f\	-co-	2a\	-co-
2G\	-ri-	.	.	2g\	-li-	2b\	-li-
=23-	=23-	=23-	=23-	=23-	=23-	=23-	=23-
2F\	-a	1r	.	2.a\	-tur	2.cc\	-tur
1A	paſ-	.	.	.	.	.	.
.	.	.	.	4g\	me-	4b\	me-
!	!	!	!	!LO:SIC:v:t=custos e	!	!	!
.	.	1c	re-	2f\	-mo-	2a\	-mo-
!	!	!	!	!LO:LB:g=original	!	!	!
!LO:SIC:v:t=custos G	!	!	!	!	!	!	!
2A\	-ſi-	.	.	2e\	-ri-	2cc\	-ri-
!LO:LB:g=original	!	!	!	!	!	!	!
=24-	=24-	=24-	=24-	=24-	=24-	=24-	=24-
!	!	!	!	!	!	!LO:SIC:v:t=custos a	!
1G	-o-	2d\	-co-	1g	-a	1b	-a
!	!	!	!	!	!	!LO:LB:g=original	!
.	.	2e\	-li-	.	.	.	.
0F	-nis	2.f\	-tur	1c	paſ-	2r	.
.	.	.	.	.	.	1a\	paſ-
.	.	4e\	me-	.	.	.	.
=25-	=25-	=25-	=25-	=25-	=25-	=25-	=25-
.	.	2d\	-mo-	1A	-si-	.	.
!	!	!LO:SIC:v:t=custos e	!	!	!	!	!
.	.	2c\	-ri-	.	.	2a\	-si-
!	!	!LO:LB:g=original	!	!	!	!	!
1E	e-	1e	-a	2B/	-o-	1g	-o-
.	.	.	.	2c/	-nis	.	.
=26-	=26-	=26-	=26-	=26-	=26-	=26-	=26-
1D	-ius	2r	.	2.d\	e-	1f	-nis
.	.	1A	paſ-	.	.	.	.
.	.	.	.	8c/	.	.	.
.	.	.	.	8B/	.	.	.
1r	.	.	.	4c/	.	2.e/	e-
.	.	.	.	4d\	.	.	.
.	.	2A/	-si-	4e\	.	.	.
.	.	.	.	4c/	.	4f/	.
=27-	=27-	=27-	=27-	=27-	=27-	=27-	=27-
1r	.	1G	-o-	2.d\	.	4g/	.
.	.	.	.	.	.	4a\	.
*	*	*	*	*	*	*lig	*
.	.	.	.	.	.	1b	.
.	.	.	.	4B/	.	.	.
0E	me(n)s	1c	-nis	1e	.	.	.
.	.	.	.	.	.	1a\	.
*	*	*	*	*	*	*Xlig	*
=28-	=28-	=28-	=28-	=28-	=28-	=28-	=28-
.	.	1B	e-	1e	-ius	.	.
.	.	.	.	.	.	2g#X/	.
1F	im-	1A	-ius	1r	.	4a\	-ius
.	.	.	.	.	.	4gny/	.
.	.	.	.	.	.	4f/	.
.	.	.	.	.	.	4e/	.
=29-	=29-	=29-	=29-	=29-	=29-	=29-	=29-
1G	-ple-	0r	.	0B	me(n)s	1d	.
1E	-tur	.	.	.	.	2r	.
.	.	.	.	.	.	1e/	me(n)s
=30-	=30-	=30-	=30-	=30-	=30-	=30-	=30-
2.A\	gra-	0r	.	1c	im-	.	.
.	.	.	.	.	.	2f/	im-
4A\	-ti-	.	.	.	.	.	.
0G	-a	.	.	1d	-ple-	0g	-ple-
=31-	=31-	=31-	=31-	=31-	=31-	=31-	=31-
.	.	0E	mens	1B	-tur	.	.
*	*ij	*	*	*	*	*	*
1C	me(n)s	.	.	2.G/	gra-	1e	-tur
!	!	!	!	!LO:SIC:v:t=custos d	!	!	!
.	.	.	.	4G/	-ti-	.	.
!	!	!	!	!LO:LB:g=original	!	!	!
=32-	=32-	=32-	=32-	=32-	=32-	=32-	=32-
1D	im-	1F	im-	2.d\	-a	2.a\	gra-
.	.	.	.	4c/	.	4a\	-ti-
!	!	!	!	!	!	!LO:SIC:v:t=custos g	!
1E	-ple-	1G	-ple-	1B	.	1g	-a
!	!	!	!	!	!	!LO:LB:g=original	!
=33-	=33-	=33-	=33-	=33-	=33-	=33-	=33-
*	*	*	*	*	*ij	*	*ij
1C	-tur	1E	-tur	2r	.	1g	me(n)s
.	.	.	.	1e	me(n)s	.	.
2.F\	gra-	2.A/	gra-	.	.	1a	im-
.	.	.	.	2d\	im-	.	.
4F\	-ti-	4A/	-ti-	.	.	.	.
=34-	=34-	=34-	=34-	=34-	=34-	=34-	=34-
!LO:SIC:v:t=custos G	!	!	!	!	!	!	!
0E	-a	4G/	-a	1g	-ple-	1b	-ple-
!LO:LB:g=original	!	!	!	!	!	!	!
*	*Xij	*	*	*	*	*	*
.	.	4A/	.	.	.	.	.
.	.	4B\	.	.	.	.	.
.	.	4G/	.	.	.	.	.
.	.	4c\	.	2e\	-tur	1g	-tur
.	.	4B\	.	.	.	.	.
.	.	4B\	.	1g\	gra-	.	.
.	.	8A/	.	.	.	.	.
!	!	!LO:SIC:v:t=custos A	!	!	!	!	!
.	.	8G/	.	.	.	.	.
!	!	!LO:LB:g=original	!	!	!	!	!
=35-	=35-	=35-	=35-	=35-	=35-	=35-	=35-
*	*	*lig	*	*	*	*	*
1r	.	1A	.	.	.	2.cc\	gra-
.	.	.	.	2f#X\	-ti-	.	.
.	.	.	.	.	.	4cc\	-ti-
2r	.	1G	.	2.g\	-a	1b	-a
*	*	*	*	*	*Xij	*	*Xij
1G\	(et)	.	.	.	.	.	.
.	.	.	.	8fny\	.	.	.
.	.	.	.	8e\	.	.	.
*	*	*Xlig	*	*	*	*	*
=36-	=36-	=36-	=36-	=36-	=36-	=36-	=36-
.	.	2B\	(et)	1d	.	0r	.
2G\	fu-	2B\	fu-	.	.	.	.
2A\	-tu-	2c\	-tu-	2r	.	.	.
2F\	-r(ae)	2A/	-r(ae)	1d\	(et)	.	.
=37-	=37-	=37-	=37-	=37-	=37-	=37-	=37-
2.G\	glo-	2.B\	glo-	.	.	2r	.
.	.	.	.	2d\	fu-	1g	(et)
4F\	.	4A/	.	.	.	.	.
2E\	.	2G/	.	2e\	-tu-	.	.
2E\	-ri-	2G/	-ri-	2B/	-r(ae)	2g/	fu-
=38-	=38-	=38-	=38-	=38-	=38-	=38-	=38-
1D	-(ae)	4F/	-(ae)	2d\	glo-	2a\	-tu-
.	.	4G/	.	.	.	.	.
.	.	4A/	.	2d\	-ri-	2f/	-r(ae)
.	.	4F/	.	.	.	.	.
2r	.	0c	.	2.e\	-(ae)	2.g/	glo-
*	*ij	*	*	*	*	*	*
1C/	(et)	.	.	.	.	.	.
!	!	!	!	!LO:SIC:v:t=custos g	!	!	!
.	.	.	.	4f\	.	4f/	.
!	!	!	!	!LO:LB:g=original	!	!	!
=39-	=39-	=39-	=39-	=39-	=39-	=39-	=39-
.	.	.	.	1g	.	2e/	.
2C/	fu-	.	.	.	.	2e/	-ri-
2D/	-tu-	1r	.	2r	.	1d	-(ae)
2BB/	-r(ae)	.	.	2d\	no-	.	.
=40-	=40-	=40-	=40-	=40-	=40-	=40-	=40-
2.C/	glo-	2r	.	1e	-bis	1g	no-
.	.	1c	(et)	.	.	.	.
4BB/	.	.	.	.	.	.	.
2AA/	.	.	.	1f#X	pi-	1a	-bis
2AA/	-ri-	2c\	fu-	.	.	.	.
=41-	=41-	=41-	=41-	=41-	=41-	=41-	=41-
1GG	-(ae)	2d\	-tu-	1g	-gnus	1b	pi-
*	*Xij	*	*	*	*	*	*
.	.	2B\	-r(ae)	.	.	.	.
1C	no-	4A/	glo-	1e	da-	1cc	-gnus
!	!	!LO:SIC:v:t=custos G	!	!	!	!	!
.	.	4G/	.	.	.	.	.
!	!	!LO:LB:g=original	!	!	!	!	!
.	.	1G/	.	.	.	.	.
=42-	=42-	=42-	=42-	=42-	=42-	=42-	=42-
!LO:SIC:v:t=custos E	!	!	!	!	!	!	!
1D	-bis	.	.	1d	-tur	1a	da-
!LO:LB:g=original	!	!	!	!	!	!	!
.	.	2F#X/	-ri-	.	.	.	.
!	!	!	!	!	!	!LO:SIC:v:t=custos cc	!
1E	pi-	2G/	-(ae)	2r	.	1g	-tur
!	!	!	!	!	!	!LO:LB:g=original	!
.	.	2G/	no-	1c\	(et)	.	.
=43-	=43-	=43-	=43-	=43-	=43-	=43-	=43-
1F	-gnus	1A	-bis	.	.	0r	.
.	.	.	.	2c/	fu-	.	.
1D	da-	1B	pi-	2d\	-tu-	.	.
.	.	.	.	2fny\	-r(ae)	.	.
=44-	=44-	=44-	=44-	=44-	=44-	=44-	=44-
1C	-tur	1c	-gnus	2.e\	glo-	2r	.
.	.	.	.	.	.	1cc	(et)
.	.	.	.	4d\	.	.	.
1r	.	1A	da-	2c/	.	.	.
.	.	.	.	2c/	-ri-	2cc\	fu-
=45-	=45-	=45-	=45-	=45-	=45-	=45-	=45-
1r	.	2G/	-tur	2B/	-(ae)	2dd\	-tu-
.	.	2G/	(et)	2d\	no-	2b\	-r(ae)
1C	no-	2G/	fu-	1e	-bis	2.cc\	glo-
.	.	1A\	-tu-	.	.	.	.
.	.	.	.	.	.	4b\	.
=46-	=46-	=46-	=46-	=46-	=46-	=46-	=46-
1D	-bis	.	.	4f\	pi-	2a\	.
.	.	.	.	4e\	.	.	.
.	.	2Fny/	-r(ae)	4d\	.	2a\	-ri-
.	.	.	.	4c/	.	.	.
1E	pi-	2G/	glo-	2B/	.	1g	-(ae)
.	.	2G/	-ri-	2B/	-gnus	.	.
=47-	=47-	=47-	=47-	=47-	=47-	=47-	=47-
1C	-gnus	2E/	-(ae)	2.e\	da-	2r	.
.	.	2G/	no-	.	.	1e	no-
!	!	!	!	!LO:SIC:v:t=custos c	!	!	!
.	.	.	.	4d\	.	.	.
!	!	!	!	!LO:LB:g=original	!	!	!
1AA	da-	1A	-bis	4c\	.	.	.
.	.	.	.	4d\	.	.	.
.	.	.	.	4e\	.	2c/	-bis
.	.	.	.	4f\	.	.	.
=48-	=48-	=48-	=48-	=48-	=48-	=48-	=48-
1GG	-tur	1B	pi-	4g\	.	1d	pi-
.	.	.	.	4d\	.	.	.
.	.	.	.	2.g\	.	.	.
!	!	!LO:SIC:v:t=custos A	!	!	!	!	!
1r	.	1c	-gnus	.	.	2e/	-gnus
!	!	!LO:LB:g=original	!	!	!	!	!
.	.	.	.	4f\	.	.	.
.	.	.	.	4e\	.	1g\	da-
.	.	.	.	4d\	.	.	.
=49-	=49-	=49-	=49-	=49-	=49-	=49-	=49-
0r	.	0A	da-	0c	.	.	.
.	.	.	.	.	.	4f#X/	.
.	.	.	.	.	.	4e/	.
.	.	.	.	.	.	1f#X	.
=50-	=50-	=50-	=50-	=50-	=50-	=50-	=50-
2r	.	2G/	-tur	1d	-tur	1g	-tur
2G\	Al-	2B\	Al-	.	.	.	.
2F\	-le-	4A/	-le-	1r	.	1r	.
.	.	4B\	.	.	.	.	.
2E\	-lu-	1c\	.	.	.	.	.
=51-	=51-	=51-	=51-	=51-	=51-	=51-	=51-
1G	-ia	.	.	2r	.	1g	Al-
.	.	2B\	-lu-	2G/	Al-	.	.
!	!	!	!	!	!	!LO:SIC:v:t=custos e	!
1r	.	1c	-ia	4A/	-le-	2fny/	-le-
!	!	!	!	!	!	!LO:LB:g=original	!
.	.	.	.	4B/	.	.	.
.	.	.	.	1c\	.	2e/	-lu-
=52-	=52-	=52-	=52-	=52-	=52-	=52-	=52-
*	*ij	*	*ij	*	*	*	*
1G	Al-	2r	.	.	.	1d	-ia
.	.	2G/	Al-	2B/	-lu-	.	.
2F\	-le-	4A/	-le-	1c	-ia	1r	.
.	.	4B\	.	.	.	.	.
2E\	-lu-	1c\	.	.	.	.	.
=53-	=53-	=53-	=53-	=53-	=53-	=53-	=53-
!LO:SIC:v:t=custos D	!	!	!	!	!	!	!
1D	-ia	.	.	2r	.	2r	.
!LO:LB:g=original	!	!	!	!	!	!	!
*	*	*	*	*	*ij	*	*ij
.	.	2B\	-lu-	2d\	Al-	2dd\	Al-
1r	.	1c	-ia	4e\	-le-	2cc\	-le-
.	.	.	.	4f\	.	.	.
.	.	.	.	1g\	.	2b\	-lu-
=54-	=54-	=54-	=54-	=54-	=54-	=54-	=54-
2r	.	2r	.	.	.	1a	-ia
*	*	*	*	*	*	*	*Xij
2D/	Al-	2d\	Al-	2f#X\	-lu-	.	.
4E\	-le-	2c\	-le-	1g	-ia	1r	.
4F\	.	.	.	.	.	.	.
1G\	.	2B\	-lu-	.	.	.	.
=55-	=55-	=55-	=55-	=55-	=55-	=55-	=55-
!	!	!LO:SIC:v:t=custos A	!	!	!	!	!
.	.	1d	-ia	2r	.	2r	.
!	!	!LO:LB:g=original	!	!	!	!	!
2F#X\	-lu-	.	.	2A/	Al-	2a\	Al-
1G	-ia	1r	.	4B/	-le-	2g/	-le-
!	!	!	!	!LO:SIC:v:t=custos d	!	!	!
.	.	.	.	4c/	.	.	.
!	!	!	!	!LO:LB:g=original	!	!	!
.	.	.	.	1d\	.	2f/	-lu-
=56-	=56-	=56-	=56-	=56-	=56-	=56-	=56-
2r	.	1A	Al-	.	.	1e	-ia
2A\	Al-	.	.	2c#X/	-lu-	.	.
2G\	-le-	4B\	-le-	1d	-ia	1r	.
.	.	4c\	.	.	.	.	.
2Fny\	-lu-	1d\	.	.	.	.	.
=57-	=57-	=57-	=57-	=57-	=57-	=57-	=57-
*	*	*	*	*	*	*	*ij
1E	-ia	.	.	2r	.	2r	.
.	.	2c#X\	-lu-	2e\	Al-	2ee\	Al-
1r	.	1d	-ia	4fny\	-le-	2dd\	-le-
.	.	.	.	4g\	.	.	.
.	.	.	.	1a\	.	2cc\	-lu-
=58-	=58-	=58-	=58-	=58-	=58-	=58-	=58-
2r	.	2r	.	.	.	1b	-ia
2E\	Al-	2e\	Al-	2g\	-lu-	.	.
2F\	-le-	4A\	-le-	1cny	-ia	1r	.
.	.	4B\	.	.	.	.	.
2E\	-lu-	1cny\	.	.	.	.	.
=59-	=59-	=59-	=59-	=59-	=59-	=59-	=59-
1D	-ia	.	.	2r	.	2r	.
.	.	2B\	-lu-	2d\	Al-	2dd\	Al-
!	!	!	!	!	!	!LO:SIC:v:t=custos b	!
1r	.	1c	-ia	4e\	-le-	2cc\	-le-
!	!	!	!	!	!	!LO:LB:g=original	!
.	.	.	.	4f\	.	.	.
.	.	.	.	1g\	.	2b\	-lu-
=60-	=60-	=60-	=60-	=60-	=60-	=60-	=60-
1r	.	2r	.	.	.	1a	-ia
.	.	2d\	Al-	2f#X\	-lu-	.	.
1G	Al-	4B\	-le-	2g\	-ia	2r	.
.	.	4c\	.	.	.	.	.
.	.	4d\	.	2G/	Al-	2b\	Al-
.	.	4B\	.	.	.	.	.
=61-	=61-	=61-	=61-	=61-	=61-	=61-	=61-
2F\	-le-	2c\	.	4A/	-le-	2a\	-le-
.	.	.	.	4B/	.	.	.
2E\	-lu-	2e\	-lu-	1c	.	2g/	-lu-
1G	-ia	1d	-ia	.	.	1.g	-ia
.	.	.	.	2B/	-lu-	.	.
=62-	=62-	=62-	=62-	=62-	=62-	=62-	=62-
1C	Al-	2r	.	2c/	-ia	.	.
.	.	2c\	Al-	2g\	Al-	2e/	Al-
1F	-le-	4A\	-le-	2fny\	-le-	1a	-le-
.	.	4B\	.	.	.	.	.
.	.	1c\	.	2e\	.	.	.
=63-	=63-	=63-	=63-	=63-	=63-	=63-	=63-
0G	-lu-	.	.	0d	-lu-	0g	-lu-
.	.	4B\	.	.	.	.	.
.	.	4A\	.	.	.	.	.
.	.	1B	-lu-	.	.	.	.
=64-	=64-	=64-	=64-	=64-	=64-	=64-	=64-
0C	-ia	0c	-ia	0e	-ia	0g	-ia
*	*Xij	*	*Xij	*	*Xij	*	*Xij
=-	=-	=-	=-	=-	=-	=-	=-
*-	*-	*-	*-	*-	*-	*-	*-
!!!system-decoration: [(s1,s2,s3,s4)]
!!!ENC: Mateusz Solarz
!!!END: 2022-07-01
!!!ENC: Julita Ruszuk
!!!END: 2022-07-05
